X:398
T:Paddy the Dandy
T:An Buachaill\'in Buidhe
R:jig
H:See also #33, #231
B:Roche 86
Z:id:hn-jig-398
M:6/8
L:1/8
K:A
EAA cAA | eAA cAA | EAA cAA | BcB BAF | 
EAA cAA | eAA cde | fga edc | BAG A2e || 
eaa c'aa | baa c'aa | eaa c'aa | baf fec | 
eaa c'aa | baa c'ae | fga edc | BAG A3 ||
|: e3/f/e/c/ Ace | Ace f2a | e3/f/e/c/ Ace | c'ae f2a |
[1 e3/f/e/c/ Ace | Ace a2a/b/ | c'c'e' d'c'b | c'af efa :|
[2 e3/f/e/c/ Ace | Ace abc' | d'c'b c'af | ecA Ace ||

